docs/.gitbook/assets/icon-heart-disabled-16@dark.svg

<svg width="32" height="32" viewBox="0 0 16 16" fill="none" xmlns="http://www.w3.org/2000/svg">
<rect x="0" y="0" width="16" height="16" fill="#181c1f"/>
<path fill-rule="evenodd" clip-rule="evenodd" d="M1.21967 1.21967C1.51256 0.926777 1.98744 0.926777 2.28033 1.21967L3.37744 2.31678C5.01925 1.58956 6.93912 2.14211 8 3.66852C9.21225 1.92443 11.5445 1.45571 13.2928 2.69896C15.0652 3.95935 15.5199 6.47545 14.3609 8.33002C14.1035 8.74181 13.6596 9.23523 13.1721 9.72608C12.8009 10.0998 12.3801 10.4959 11.9483 10.8876L14.7803 13.7197C15.0732 14.0126 15.0732 14.4874 14.7803 14.7803C14.4874 15.0732 14.0126 15.0732 13.7197 14.7803L1.21967 2.28033C0.926777 1.98744 0.926777 1.51256 1.21967 1.21967ZM10.8863 9.82565C11.3241 9.42978 11.7446 9.03478 12.1078 8.66905C12.5884 8.18518 12.9275 7.79314 13.0889 7.53504C13.8444 6.32618 13.5231 4.70328 12.4235 3.92138C11.3623 3.16674 9.91953 3.44626 9.17617 4.60786L8.66626 5.59438C8.53748 5.84352 8.28046 6 8 6C7.71954 6 7.46252 5.84352 7.33374 5.59438L6.82384 4.60787C6.29735 3.78518 5.4207 3.40703 4.58081 3.52015L10.8863 9.82565ZM1.75105 5C2.16527 5 2.50105 5.33579 2.50105 5.75V6L2.50083 6.01824C2.48808 6.54268 2.62165 7.07182 2.91115 7.53504C3.09834 7.83455 3.51685 8.30358 4.09863 8.87409C4.66488 9.42937 5.33788 10.0351 5.98806 10.5992C6.63708 11.1622 7.25734 11.6787 7.71573 12.0546C7.94476 12.2425 8.133 12.3949 8.26374 12.5002C8.3291 12.5529 8.38006 12.5937 8.41454 12.6213L8.45362 12.6525L8.4634 12.6603L8.46575 12.6621L8.46629 12.6626L8.4664 12.6627C8.79078 12.9202 8.84493 13.392 8.58735 13.7164C8.32977 14.0408 7.85799 14.0949 7.53361 13.8373L8 13.25C7.53361 13.8373 7.53356 13.8373 7.5335 13.8373L7.53327 13.8371L7.53251 13.8365L7.52969 13.8342L7.51897 13.8257L7.47791 13.7929C7.44208 13.7643 7.38968 13.7223 7.32281 13.6684C7.18908 13.5607 6.99738 13.4054 6.76449 13.2144C6.29905 12.8327 5.66759 12.307 5.00506 11.7322C4.34369 11.1584 3.64531 10.5304 3.0484 9.94507C2.46702 9.37496 1.93061 8.79637 1.63914 8.33002C1.18781 7.60787 0.983385 6.79059 1.00105 5.99131V5.75C1.00105 5.33579 1.33684 5 1.75105 5Z" fill="#fff"/>
</svg>

<svg xmlns="http://www.w3.org/2000/svg" width="32" height="32" fill="none" viewBox="0 0 16 16"><path fill="#181c1f" d="M0 0h16v16H0z"/><path fill="#fff" fill-rule="evenodd" d="M1.22 1.22a.75.75 0 0 1 1.06 0l1.097 1.097C5.02 1.59 6.94 2.142 8 3.669c1.212-1.745 3.544-2.213 5.293-.97 1.772 1.26 2.227 3.776 1.068 5.631-.258.412-.701.905-1.189 1.396-.371.374-.792.77-1.224 1.162l2.832 2.832a.75.75 0 1 1-1.06 1.06L1.22 2.28a.75.75 0 0 1 0-1.06m9.666 8.606c.438-.396.859-.791 1.222-1.157.48-.484.82-.876.98-1.134.756-1.209.435-2.832-.664-3.614-1.062-.754-2.504-.475-3.248.687l-.51.986a.75.75 0 0 1-1.332 0l-.51-.986C6.297 3.785 5.42 3.407 4.58 3.52zM1.751 5a.75.75 0 0 1 .75.75v.268c-.013.525.12 1.054.41 1.517.187.3.606.769 1.188 1.34.566.554 1.239 1.16 1.89 1.724a83 83 0 0 0 2.426 2.022l.039.031.01.008.002.002a.75.75 0 1 1-.932 1.175L8 13.25l-.466.587h-.001l-.003-.003-.011-.008-.041-.033-.155-.125a82 82 0 0 1-2.318-1.936 45 45 0 0 1-1.957-1.787c-.581-.57-1.117-1.149-1.409-1.615a4.23 4.23 0 0 1-.638-2.339V5.75a.75.75 0 0 1 .75-.75" clip-rule="evenodd"/></svg>
